public/icon/svg/Pttime.pt.svg

<?xml version="1.0" encoding="UTF-8"?>
<svg width="1024px" height="1024px" viewBox="0 0 1024 1024" version="1.1" xmlns="http://www.w3.org/2000/svg" xmlns:xlink="http://www.w3.org/1999/xlink">
    <title>Pttime</title>
    <g id="ICON-新版方图标" stroke="none" stroke-width="1" fill="none" fill-rule="evenodd">
        <g id="Pttime">
            <rect id="蒙版路径" fill="#5C7B97" x="0" y="0" width="1024" height="1024"></rect>
            <g id="PT" transform="translate(118, 250)" fill="#FFFFFF">
                <path d="M247.94,376.08 C233.633333,377.626667 220.293333,377.433333 207.92,375.5 C199.8,373.953333 188.973333,369.313333 175.44,361.58 C169.64,358.1 167.32,353.846667 168.48,348.82 C169.64,343.793333 173.506667,340.893333 180.08,340.12 C198.64,338.186667 219.133333,335.576667 241.56,332.29 C263.986667,329.003333 285.253333,323.3 305.36,315.18 C341.706667,298.94 359.88,275.16 359.88,243.84 C359.88,226.44 352.92,212.133333 339,200.92 C325.08,189.706667 308.066667,184.293333 287.96,184.68 C250.066667,187 213.913333,193.766667 179.5,204.98 C170.993333,208.46 163.646667,207.106667 157.46,200.92 C155.14,199.373333 153.206667,197.633333 151.66,195.7 L151.66,507.74 C151.66,515.086667 150.016667,519.823333 146.73,521.95 C143.443333,524.076667 138.32,524.56 131.36,523.4 C119.76,519.92 110.866667,516.44 104.68,512.96 C99.6533333,510.253333 96.1733333,506.966667 94.24,503.1 C92.6933333,500.006667 91.92,494.786667 91.92,487.44 L91.92,159.74 C91.92,151.233333 94.24,145.82 98.88,143.5 C102.746667,141.566667 109.126667,141.76 118.02,144.08 C124.98,145.626667 135.42,150.266667 149.34,158 C196.9,143.693333 242.14,136.54 285.06,136.54 C323.726667,136.54 355.433333,145.626667 380.18,163.8 C406.86,183.52 420.393333,210.393333 420.78,244.42 C420.78,291.98 392.94,328.326667 337.26,353.46 C307.486667,366.22 277.713333,373.76 247.94,376.08 Z" id="路径" fill-rule="nonzero"></path>
                <path d="M644.66,243.84 L644.66,507.16 C644.66,514.893333 643.016667,519.823333 639.73,521.95 C636.443333,524.076667 631.32,524.366667 624.36,522.82 C613.533333,520.113333 604.64,516.633333 597.68,512.38 C591.88,509.286667 588.206667,506.193333 586.66,503.1 C585.113333,500.006667 584.34,494.786667 584.34,487.44 L584.34,215.42 C584.34,206.526667 586.466667,200.92 590.72,198.6 C558.24,201.693333 523.633333,206.14 486.9,211.94 C475.686667,213.486667 466.406667,211.94 459.06,207.3 C451.326667,201.886667 444.173333,195.313333 437.6,187.58 C434.12,182.94 433.346667,178.3 435.28,173.66 C437.213333,169.02 441.08,166.506667 446.88,166.12 C548.573333,151.426667 645.24,141.566667 736.88,136.54 C753.893333,135.38 766.653333,139.826667 775.16,149.88 C780.573333,155.68 784.633333,162.833333 787.34,171.34 C789.66,177.526667 788.886667,182.166667 785.02,185.26 C781.926667,187.58 776.706667,188.74 769.36,188.74 C728.373333,187.193333 672.886667,190.093333 602.9,197.44 L611.02,199.18 C623.006667,201.886667 634.026667,206.913333 644.08,214.26 C655.68,223.153333 655.873333,233.013333 644.66,243.84 Z" id="路径" fill-rule="nonzero"></path>
                <circle id="椭圆形" cx="59" cy="59" r="59"></circle>
            </g>
        </g>
    </g>
</svg>

<svg xmlns="http://www.w3.org/2000/svg" width="1024" height="1024"><g fill="none" fill-rule="evenodd"><path fill="#5C7B97" d="M0 0h1024v1024H0z"/><g fill="#FFF" transform="translate(118 250)"><path fill-rule="nonzero" d="M247.94 376.08c-14.307 1.547-27.647 1.353-40.02-.58-8.12-1.547-18.947-6.187-32.48-13.92-5.8-3.48-8.12-7.733-6.96-12.76 1.16-5.027 5.027-7.927 11.6-8.7 18.56-1.933 39.053-4.543 61.48-7.83s43.693-8.99 63.8-17.11c36.347-16.24 54.52-40.02 54.52-71.34 0-17.4-6.96-31.707-20.88-42.92-13.92-11.213-30.933-16.627-51.04-16.24-37.893 2.32-74.047 9.087-108.46 20.3-8.507 3.48-15.853 2.127-22.04-4.06-2.32-1.547-4.253-3.287-5.8-5.22v312.04c0 7.347-1.643 12.083-4.93 14.21-3.287 2.127-8.41 2.61-15.37 1.45-11.6-3.48-20.493-6.96-26.68-10.44-5.027-2.707-8.507-5.993-10.44-9.86-1.547-3.093-2.32-8.313-2.32-15.66v-327.7c0-8.507 2.32-13.92 6.96-16.24 3.867-1.933 10.247-1.74 19.14.58 6.96 1.547 17.4 6.187 31.32 13.92 47.56-14.307 92.8-21.46 135.72-21.46 38.667 0 70.373 9.087 95.12 27.26 26.68 19.72 40.213 46.593 40.6 80.62 0 47.56-27.84 83.907-83.52 109.04-29.773 12.76-59.547 20.3-89.32 22.62M644.66 243.84v263.32c0 7.733-1.643 12.663-4.93 14.79-3.287 2.127-8.41 2.417-15.37.87-10.827-2.707-19.72-6.187-26.68-10.44-5.8-3.093-9.473-6.187-11.02-9.28-1.547-3.093-2.32-8.313-2.32-15.66V215.42c0-8.893 2.127-14.5 6.38-16.82-32.48 3.093-67.087 7.54-103.82 13.34-11.213 1.547-20.493 0-27.84-4.64-7.733-5.413-14.887-11.987-21.46-19.72-3.48-4.64-4.253-9.28-2.32-13.92 1.933-4.64 5.8-7.153 11.6-7.54 101.693-14.693 198.36-24.553 290-29.58 17.013-1.16 29.773 3.287 38.28 13.34 5.413 5.8 9.473 12.953 12.18 21.46 2.32 6.187 1.547 10.827-2.32 13.92-3.093 2.32-8.313 3.48-15.66 3.48-40.987-1.547-96.473 1.353-166.46 8.7l8.12 1.74c11.987 2.707 23.007 7.733 33.06 15.08 11.6 8.893 11.793 18.753.58 29.58"/><circle cx="59" cy="59" r="59"/></g></g></svg>
